api/fonts/MyFonts Logo.svg

<svg width="53" height="26" viewBox="0 0 53 26" fill="none" xmlns="http://www.w3.org/2000/svg">
<path d="M12.5693 25.5449C11.977 25.2379 11.6808 24.8171 11.6808 24.2826C11.6808 24.0713 11.735 23.9467 11.8596 23.9141C11.9856 23.8772 12.1209 23.8888 12.2389 23.9467C12.5206 24.0658 12.7806 24.167 13.019 24.2501C13.239 24.3266 13.4633 24.3899 13.6908 24.4397C13.8927 24.4825 14.0972 24.5115 14.303 24.5264C14.5053 24.5408 14.7256 24.548 14.964 24.548C15.8706 24.548 16.6923 24.3476 17.4291 23.9467C18.1797 23.5336 18.8437 22.98 19.3849 22.3159C19.9784 21.5854 20.4704 20.7781 20.8477 19.9158C21.2661 18.9762 21.6103 18.0052 21.8771 17.0119C22.1545 15.977 22.3662 14.9257 22.511 13.8641C22.6591 12.7842 22.7566 11.7313 22.8036 10.7056L21.3028 13.7179C21.05 14.2091 20.8459 14.5739 20.6906 14.8123C20.5353 15.0506 20.3547 15.1698 20.1488 15.1698C20.0068 15.1655 19.8678 15.1284 19.7425 15.0615C19.5862 14.9797 19.4495 14.8651 19.3416 14.7256C19.2096 14.5541 19.1071 14.3618 19.0382 14.1567C18.9514 13.9003 18.9093 13.6309 18.9136 13.3603C18.9184 12.8887 18.9564 12.4179 19.0274 11.9517C19.0996 11.4315 19.1772 10.9187 19.2603 10.413L19.4879 9.05314C19.5413 8.76511 19.5739 8.4736 19.5854 8.18087L19.5691 7.95332L17.1528 12.8131C17.0237 13.0826 16.8598 13.3339 16.6652 13.5607C16.6 13.6342 16.5198 13.693 16.4302 13.7331C16.3405 13.7733 16.2433 13.7939 16.1451 13.7937C15.8345 13.7937 15.5672 13.586 15.3433 13.1707C15.1193 12.7553 15.0073 12.2641 15.0073 11.697L15.0182 11.3286L15.0615 10.7327L15.1645 9.77912L15.3433 8.30006C15.4155 7.63187 15.4859 7.03049 15.5545 6.49594C15.6155 6.05777 15.6499 5.61631 15.6575 5.17399C15.6575 4.92478 15.6304 4.74057 15.5871 4.61596L13.2411 11.7891C13.0353 12.3815 12.8583 12.8059 12.7102 13.0623C12.6447 13.1818 12.5471 13.2807 12.4284 13.3477C12.3097 13.4147 12.1746 13.4472 12.0384 13.4416C11.8077 13.4392 11.5837 13.3633 11.3991 13.2248C11.187 13.0718 11.0112 12.8739 10.8844 12.6451C10.7337 12.3721 10.619 12.0808 10.5431 11.7783C10.4507 11.4246 10.4051 11.0603 10.4076 10.6947C10.4076 9.84594 10.4329 9.01521 10.4835 8.20254C10.5341 7.38987 10.5611 6.64944 10.5648 5.98125C10.5648 5.34195 10.5196 4.9627 10.4293 4.84351C10.3571 5.04939 10.2794 5.2986 10.1963 5.59116C10.1133 5.88011 10.023 6.21782 9.92546 6.60429C9.82794 6.99076 9.71958 7.44224 9.60039 7.95874C9.4812 8.47524 9.34756 9.06578 9.19947 9.73036L8.51141 13.1273C8.40726 13.5694 8.26775 14.0024 8.09424 14.4222C7.93373 14.822 7.71262 15.1948 7.43869 15.5274C7.16209 15.8534 6.81835 16.1158 6.43098 16.2967C6.03006 16.4918 5.54607 16.5893 4.97901 16.5893C4.33509 16.591 3.69379 16.5072 3.07194 16.3401C2.51147 16.1963 1.97619 15.9679 1.48453 15.6628C1.05662 15.3976 0.687798 15.0472 0.400971 14.6335C0.13678 14.2496 -0.00316505 13.7938 5.43231e-05 13.3278C5.43231e-05 12.8077 0.200513 12.3652 0.60143 12.0004C1.00596 11.6356 1.58747 11.4532 2.34596 11.4532C2.78773 11.4464 3.22797 11.5067 3.65165 11.632C3.99145 11.732 4.3146 11.8817 4.6106 12.0763C4.84347 12.2265 5.0457 12.4195 5.20656 12.6451C5.34019 12.8474 5.40701 13.0298 5.40701 13.1923C5.40701 13.4632 5.26435 13.5969 4.97901 13.5932C4.69953 13.5864 4.4208 13.5611 4.14467 13.5174C3.7713 13.4655 3.39472 13.4401 3.01777 13.4416C2.57601 13.4327 2.13606 13.5005 1.7175 13.642C1.88112 13.8646 2.07855 14.0602 2.30262 14.2217C2.57121 14.4255 2.86201 14.5981 3.16946 14.7364C3.50538 14.8878 3.85332 15.0111 4.20968 15.1048C4.55602 15.1977 4.91299 15.245 5.27157 15.2457C5.67249 15.2457 5.99214 15.15 6.23052 14.9585C6.4689 14.7671 6.67297 14.4475 6.84273 13.9996C7.0161 13.5517 7.17683 12.9558 7.32491 12.2117L7.88295 9.44322C8.19718 7.92623 8.48071 6.70904 8.73354 5.79162C8.98637 4.87421 9.22475 4.17351 9.44869 3.68952C9.66901 3.20553 9.88573 2.88588 10.0988 2.73057C10.2823 2.58413 10.5089 2.50225 10.7435 2.4976C10.9982 2.50238 11.2462 2.57941 11.4587 2.71973C11.7081 2.88021 11.9235 3.08824 12.0926 3.33194C12.2902 3.61839 12.4402 3.9349 12.5368 4.26922C12.6511 4.65014 12.7006 5.04757 12.6831 5.44488L12.4827 10.0446L14.4114 4.01459C14.5559 3.56672 14.6859 3.20553 14.8015 2.93103C14.8849 2.7092 14.9979 2.49963 15.1374 2.30798C15.224 2.18674 15.337 2.08671 15.4679 2.01542C15.5997 1.95985 15.7421 1.93395 15.885 1.93957C16.1056 1.94794 16.3202 2.01327 16.5081 2.12919C16.7462 2.26697 16.9588 2.44475 17.1365 2.65472C17.3375 2.89272 17.4952 3.1641 17.6025 3.45655C17.7245 3.78586 17.7851 4.13476 17.7813 4.48593C17.7813 4.70626 17.7704 4.95186 17.7488 5.22275C17.7271 5.49364 17.691 5.83677 17.6404 6.25214L17.4345 7.79079C17.3514 8.40119 17.2593 9.15969 17.1582 10.0663L18.5398 7.30319C18.7203 6.942 18.8738 6.65305 19.0003 6.43634C19.0961 6.26398 19.2126 6.10389 19.347 5.95958C19.4265 5.87214 19.5247 5.80364 19.6341 5.75912C19.7283 5.72698 19.8272 5.7105 19.9267 5.71036C20.0784 5.71036 20.1651 5.80607 20.1868 5.9975C20.3197 6.02472 20.4476 6.07223 20.566 6.13836C20.7667 6.25114 20.9434 6.40206 21.0861 6.58262C21.2348 6.76796 21.3553 6.97426 21.4437 7.19483C21.5317 7.40794 21.5777 7.63606 21.5791 7.86664C21.5791 8.17726 21.5232 8.64319 21.4112 9.26443C21.2992 9.88567 21.115 10.8193 20.8586 12.0654L21.8879 9.99041C22.1227 9.5281 22.3069 9.20664 22.4406 9.02605C22.5742 8.84545 22.7692 8.75516 23.0257 8.75516C23.1474 8.75474 23.2681 8.77847 23.3806 8.82496C23.4931 8.87146 23.5953 8.93981 23.6812 9.02605C23.8847 9.23046 24.0385 9.47883 24.1309 9.75203C24.251 10.0959 24.3328 10.4521 24.3747 10.8139C24.4291 11.2361 24.4563 11.6614 24.456 12.0871C24.4527 13.1573 24.3694 14.2258 24.2068 15.2836C24.0448 16.3623 23.7947 17.426 23.4591 18.4638C23.132 19.4803 22.7017 20.4606 22.1751 21.3895C21.6797 22.2691 21.0592 23.0721 20.333 23.7733C19.6272 24.4527 18.8075 25.0028 17.9113 25.3986C17.0047 25.7995 15.9934 26 14.8773 26C13.9382 26 13.1707 25.8483 12.5748 25.5449H12.5693ZM25.9405 15.8416C25.8574 15.7297 25.8158 15.5617 25.8158 15.3378C25.8158 15.233 25.8339 15.0127 25.87 14.6768C25.9061 14.3409 25.9549 13.8894 26.0163 13.3224L26.5527 8.90686C26.2026 8.92827 25.8522 8.94272 25.5016 8.9502C25.3066 8.9502 25.1765 8.91227 25.1007 8.84184C25.0635 8.80316 25.0346 8.75721 25.016 8.70687C24.9974 8.65652 24.9893 8.60288 24.9923 8.54928C24.9923 8.2495 25.1404 7.98764 25.4366 7.7637C25.7328 7.53976 26.1644 7.41335 26.7315 7.38445L27.089 4.49135H24.6077C24.3318 4.51051 24.055 4.47175 23.795 4.37758C23.5865 4.30113 23.3938 4.1873 23.2261 4.04168C23.0888 3.92296 22.9749 3.77964 22.8902 3.61909C22.826 3.50246 22.7889 3.37281 22.7819 3.23984C22.7819 2.98701 22.874 2.8299 23.0582 2.76849C23.2732 2.70539 23.4952 2.669 23.7192 2.66014L27.3328 2.54636C27.3942 2.0407 27.4538 1.61992 27.5116 1.28402C27.5528 1.01804 27.6199 0.756732 27.7121 0.503854C27.7626 0.35571 27.8481 0.221915 27.9613 0.113774C28.0403 0.0427275 28.1422 0.00236143 28.2484 0C28.6349 0 28.9329 0.234771 29.1424 0.704313C29.3519 1.17386 29.4711 1.7662 29.4999 2.48135L38.4556 2.23213C38.6669 2.2213 38.8294 2.23213 38.9432 2.28631C39.0569 2.34049 39.1274 2.47051 39.1274 2.68181C39.1218 2.88221 39.0758 3.07941 38.9919 3.26151C38.8979 3.47665 38.7657 3.67304 38.6018 3.84122C38.4263 4.02225 38.2187 4.1692 37.9896 4.27464C37.7435 4.38843 37.4752 4.44581 37.2041 4.44259H36.3697L34.4789 4.45343L31.9813 4.4751C31.0711 4.48594 30.1862 4.49135 29.3266 4.49135L28.9419 7.34653L30.1826 7.30319L31.342 7.25985L32.2251 7.22734L32.626 7.2165C32.6874 7.2165 32.7235 7.25082 32.7344 7.31944C32.9764 7.34111 33.1461 7.43141 33.2436 7.59033C33.3426 7.748 33.4056 7.92561 33.4279 8.11044C33.7206 7.75786 34.0472 7.43486 34.4031 7.14607C34.7303 6.87794 35.0801 6.63866 35.4487 6.43092C35.7728 6.24979 36.114 6.10099 36.4672 5.98666C36.7466 5.89068 37.0388 5.8377 37.3341 5.82955C37.6808 5.82955 37.9644 6.01195 38.1847 6.37674C38.405 6.74154 38.517 7.184 38.5206 7.7041C38.5215 8.09762 38.4925 8.49064 38.4339 8.87977C38.3777 9.34536 38.3109 9.8096 38.2334 10.2721L39.1328 8.48427C39.3603 8.04001 39.5463 7.69508 39.6908 7.44947C39.8353 7.20386 39.9581 7.04133 40.0592 6.96187C40.1605 6.88032 40.2868 6.8363 40.4168 6.83726C40.5716 6.84025 40.7243 6.87337 40.8665 6.93478C41.0338 7.00554 41.1877 7.1045 41.3216 7.22734C41.4667 7.3583 41.5845 7.51664 41.6683 7.69327C41.7599 7.88616 41.8062 8.0974 41.8038 8.3109C41.8038 8.50233 41.7893 8.75877 41.7604 9.08023L41.6521 10.1421L41.5004 11.3665C41.4498 11.8 41.3956 12.2171 41.3378 12.618C41.5293 12.3219 41.7478 11.9715 41.9934 11.567C42.239 11.1625 42.481 10.7615 42.7194 10.3642C42.9578 9.96333 43.1745 9.58769 43.3695 9.23734C43.5501 8.91227 43.691 8.64861 43.7921 8.44634L43.8138 8.3109L44.0847 6.47968L42.7681 6.36591C42.3636 6.33701 42.0458 6.30631 41.8146 6.27381C41.6433 6.25505 41.4732 6.2261 41.3053 6.18712C41.1916 6.15461 41.1211 6.12211 41.0886 6.07877C41.0576 6.03041 41.0425 5.9736 41.0453 5.91623C41.0453 5.73925 41.1879 5.53518 41.4733 5.30402C41.7586 5.07286 42.2191 4.95728 42.8548 4.95728L44.3285 4.93561L44.4206 4.42092C44.4839 4.06187 44.5763 3.70855 44.6969 3.36445C44.8133 3.02197 44.9472 2.68563 45.0978 2.35674C45.2175 2.08824 45.3724 1.83682 45.5583 1.60908C45.7208 1.41404 45.8761 1.31652 46.0242 1.31652C46.2626 1.31652 46.4071 1.41766 46.4576 1.61992C46.5111 1.81385 46.524 2.01673 46.4956 2.21588L46.203 4.91394L48.2618 4.8706C48.4243 4.8706 48.5327 4.90852 48.5923 4.98979C48.6568 5.08556 48.6891 5.19945 48.6844 5.31486C48.6865 5.48881 48.6495 5.66102 48.576 5.81871C48.501 5.97388 48.4023 6.11645 48.2834 6.2413C48.1712 6.36344 48.0394 6.46598 47.8934 6.5447C47.76 6.61584 47.6111 6.65305 47.4599 6.65305L46.8206 6.64222C46.6039 6.63499 46.3457 6.61693 46.0459 6.58804L45.8454 8.5547C45.784 9.17955 45.7335 9.74481 45.6937 10.2505C45.6468 10.7561 45.6125 11.1914 45.5908 11.5562C45.5691 11.921 45.5583 12.1792 45.5583 12.3309C45.7389 12.1792 45.9646 11.9282 46.2355 11.5778C46.5136 11.2311 46.8152 10.8266 47.1403 10.3642C47.469 9.90192 47.8085 9.4071 48.1588 8.87977C48.5092 8.35243 48.8397 7.84136 49.1503 7.34653L49.2045 7.26526C49.4501 6.49594 49.7607 5.90901 50.1363 5.50448C50.5373 5.07106 50.9093 4.85434 51.2524 4.85434C51.5052 4.85434 51.6949 4.92297 51.8213 5.06022C51.9459 5.19567 52.0109 5.37445 52.0109 5.59658C52.0102 5.69032 51.9956 5.78344 51.9675 5.87289C51.9226 6.00392 51.8664 6.13082 51.7996 6.25214C51.6939 6.44937 51.5782 6.64105 51.4529 6.82642C51.3048 7.04675 51.1115 7.31402 50.8732 7.62826C51.126 8.47704 51.3481 9.31138 51.5395 10.1313C51.729 10.9119 51.8272 11.7119 51.8321 12.5151C51.8321 13.3206 51.6497 13.9815 51.2849 14.498C50.9201 15.0145 50.4397 15.2692 49.8438 15.2619C49.4062 15.2655 48.979 15.1288 48.6248 14.8718C48.2636 14.6118 48.083 14.294 48.083 13.9183C48.082 13.7856 48.1156 13.6549 48.1805 13.5391C48.266 13.3979 48.3719 13.2701 48.4947 13.1598C48.6356 13.0262 48.8144 12.8745 49.0311 12.7047C49.2478 12.535 49.5115 12.3291 49.8221 12.0871C49.7499 11.6898 49.6686 11.2654 49.5783 10.8139C49.4945 10.3935 49.3896 9.97766 49.2641 9.56783L49.2478 9.51365C48.4351 10.9584 47.6767 12.0618 46.9723 12.8239C46.268 13.5932 45.6612 13.9761 45.152 13.9725C44.9269 13.9727 44.7053 13.9169 44.5072 13.81C44.302 13.7017 44.1198 13.5544 43.9709 13.3765C43.8203 13.1945 43.6996 12.9897 43.6133 12.7697C43.5254 12.5566 43.4794 12.3285 43.4779 12.0979L43.4887 11.5291L43.5158 11.0415C43.3533 11.381 43.1817 11.7241 43.0011 12.0708L42.4756 13.0352C42.313 13.335 42.1595 13.6041 42.0151 13.8425C41.9088 14.0271 41.7931 14.2062 41.6683 14.3788C41.448 14.675 41.2746 14.8935 41.1482 15.0344C41.0889 15.1039 41.0149 15.1595 40.9315 15.1969C40.8481 15.2344 40.7574 15.2529 40.666 15.2511C40.5033 15.2464 40.3431 15.2096 40.1947 15.1427C40.0324 15.0781 39.8822 14.9865 39.7504 14.8718C39.6143 14.75 39.5006 14.6051 39.4145 14.4438C39.3226 14.2724 39.276 14.0803 39.2791 13.8858C39.2892 13.6283 39.3127 13.3715 39.3495 13.1165C39.3928 12.7517 39.4452 12.3598 39.5066 11.9408C39.568 11.5218 39.6204 11.1173 39.6637 10.7272C39.7018 10.4198 39.7235 10.1105 39.7287 9.80079L38.5097 12.2659C38.2063 12.8835 37.9571 13.3531 37.7621 13.6745C37.567 13.996 37.419 14.2037 37.3178 14.2976C37.2358 14.3849 37.1233 14.4373 37.0036 14.4438C36.7508 14.4438 36.5232 14.3246 36.321 14.0863C36.1197 13.8431 36.0138 13.535 36.023 13.2194C36.023 12.9341 36.0483 12.5079 36.0988 11.9408C36.1494 11.3738 36.2054 10.7904 36.2668 10.1909C36.3246 9.58769 36.3842 9.02244 36.4456 8.4951C36.507 7.96777 36.5359 7.58311 36.5322 7.34111C36.4065 7.38843 36.2835 7.44269 36.1638 7.50365L35.6979 7.73119C35.549 7.81021 35.4043 7.89702 35.2645 7.99125C35.129 8.07793 35.0207 8.15378 34.9502 8.21338V8.22421C34.9791 8.40481 35.0044 8.66486 35.0261 9.00438C35.0478 9.34389 35.0586 9.63284 35.0586 9.87122C35.0612 10.4723 34.9976 11.0719 34.869 11.6591C34.7581 12.1858 34.5662 12.692 34.3001 13.1598C34.0686 13.5687 33.7483 13.9205 33.3628 14.1892C32.9802 14.4452 32.5283 14.5776 32.068 14.5685C31.4576 14.5685 30.9664 14.3626 30.5943 13.9508C30.2223 13.5391 30.0363 12.9323 30.0363 12.1304C30.0442 11.5527 30.1299 10.9787 30.2909 10.4238C30.4435 9.86098 30.6428 9.31187 30.8869 8.78225L30.9357 8.67931H30.8815L29.8575 8.72807C29.4999 8.74252 29.1352 8.76419 28.7631 8.79308L28.2484 12.2334C28.1678 12.8479 28.0447 13.4562 27.88 14.0538C27.7392 14.5378 27.5911 14.9242 27.4358 15.2132C27.2805 15.5021 27.1125 15.708 26.9319 15.8308C26.768 15.945 26.5736 16.0072 26.3739 16.0096C26.1626 16.0096 26.0217 15.9554 25.9405 15.8416ZM32.4472 10.581C32.2118 11.0962 32.0899 11.6561 32.0897 12.2225C32.0897 12.5187 32.1258 12.7535 32.198 12.9269C32.2793 13.0948 32.3876 13.1815 32.5393 13.1815C32.7199 13.1815 32.8716 13.0208 32.9944 12.6993C33.1172 12.3779 33.1804 11.8541 33.1841 11.1282C33.1841 10.7417 33.1732 10.3588 33.1515 9.97958C33.1299 9.60033 33.119 9.32041 33.119 9.13982C32.9095 9.57324 32.6856 10.0536 32.4472 10.581Z" fill="#00AAFF"/>
</svg>

<svg width="53" height="26" fill="none" xmlns="http://www.w3.org/2000/svg"><path d="M12.57 25.545c-.593-.307-.89-.728-.89-1.262 0-.212.055-.336.18-.369a.526.526 0 0 1 .379.033c.282.119.542.22.78.303.22.077.444.14.672.19.202.043.406.072.612.086.202.015.423.022.661.022.907 0 1.728-.2 2.465-.601a6.674 6.674 0 0 0 1.956-1.631 10.448 10.448 0 0 0 1.463-2.4c.418-.94.762-1.91 1.03-2.904.276-1.035.488-2.086.633-3.148.148-1.08.246-2.133.293-3.158l-1.501 3.012c-.253.491-.457.856-.612 1.094-.156.239-.336.358-.542.358a.922.922 0 0 1-.407-.108 1.225 1.225 0 0 1-.4-.336 1.952 1.952 0 0 1-.304-.57 2.366 2.366 0 0 1-.124-.796c.004-.471.042-.942.113-1.408.073-.52.15-1.033.233-1.539l.228-1.36c.053-.288.086-.58.097-.872l-.016-.228-2.416 4.86c-.13.27-.293.52-.488.748a.692.692 0 0 1-.52.233c-.31 0-.578-.208-.802-.623-.224-.416-.336-.907-.336-1.474l.011-.368.043-.596.104-.954.178-1.479c.072-.668.143-1.27.212-1.804.06-.438.095-.88.103-1.322 0-.25-.028-.433-.07-.558l-2.347 7.173c-.206.593-.383 1.017-.53 1.273a.731.731 0 0 1-.673.38 1.084 1.084 0 0 1-.639-.217 1.777 1.777 0 0 1-.515-.58 3.613 3.613 0 0 1-.34-.867 4.174 4.174 0 0 1-.136-1.083c0-.85.025-1.68.075-2.492.051-.813.078-1.554.082-2.222 0-.64-.045-1.018-.136-1.137-.072.205-.15.455-.233.747-.083.29-.173.627-.27 1.013-.098.387-.206.838-.326 1.355-.119.516-.252 1.107-.4 1.771l-.689 3.397a8.481 8.481 0 0 1-.417 1.295 4.2 4.2 0 0 1-.655 1.105 2.97 2.97 0 0 1-1.008.77c-.4.195-.885.292-1.452.292a7.275 7.275 0 0 1-1.907-.249 5.695 5.695 0 0 1-1.587-.677A3.673 3.673 0 0 1 .4 14.633a2.276 2.276 0 0 1-.4-1.305c0-.52.2-.963.6-1.328.405-.364.986-.547 1.745-.547.442-.007.882.054 1.306.179.34.1.663.25.959.444.232.15.435.343.596.57.133.201.2.384.2.546 0 .271-.143.405-.428.401a6.321 6.321 0 0 1-.834-.076 7.955 7.955 0 0 0-1.127-.075 3.82 3.82 0 0 0-1.3.2c.163.223.36.418.585.58.268.204.559.376.866.514.336.152.684.275 1.04.369.347.093.704.14 1.063.14.4 0 .72-.095.959-.286.238-.192.442-.511.612-.96.173-.447.334-1.043.482-1.787l.558-2.769c.314-1.517.598-2.734.85-3.651.253-.918.492-1.618.716-2.102.22-.484.437-.804.65-.96.183-.146.41-.228.644-.232.255.004.503.081.716.222.25.16.465.368.634.612.197.286.347.603.444.937.114.381.164.779.146 1.176l-.2 4.6 1.928-6.03c.145-.448.275-.81.39-1.084.084-.222.197-.431.336-.623a.985.985 0 0 1 .33-.293.975.975 0 0 1 .418-.075c.22.008.435.073.623.19.238.137.45.315.629.525.2.238.358.51.465.802.122.329.183.678.18 1.029 0 .22-.012.466-.033.737-.022.27-.058.614-.109 1.03l-.206 1.538c-.083.61-.175 1.369-.276 2.275l1.382-2.763c.18-.361.334-.65.46-.867.096-.172.213-.332.347-.476a.791.791 0 0 1 .287-.2.91.91 0 0 1 .293-.05c.151 0 .238.096.26.287.133.028.26.075.379.141.2.113.377.264.52.445.149.185.27.391.358.612.088.213.134.441.135.672 0 .31-.056.776-.168 1.397-.112.622-.296 1.555-.552 2.801l1.029-2.075c.235-.462.419-.783.553-.964.133-.18.328-.27.585-.27a.921.921 0 0 1 .655.27c.204.204.357.453.45.726.12.344.202.7.244 1.062.054.422.081.847.081 1.273a21.475 21.475 0 0 1-.25 3.197 19.98 19.98 0 0 1-.747 3.18 15.658 15.658 0 0 1-1.284 2.926 10.426 10.426 0 0 1-1.842 2.383 8.365 8.365 0 0 1-2.422 1.626c-.906.4-1.918.601-3.034.601-.939 0-1.706-.152-2.302-.455h-.006zm13.37-9.703c-.083-.112-.124-.28-.124-.504 0-.105.018-.325.054-.661l.146-1.355.537-4.415c-.35.021-.7.036-1.051.043-.195 0-.325-.038-.401-.108a.39.39 0 0 1-.109-.293c0-.3.148-.561.445-.785.296-.224.727-.35 1.294-.38l.358-2.893h-2.481c-.276.02-.553-.02-.813-.113a1.827 1.827 0 0 1-.569-.336 1.458 1.458 0 0 1-.336-.423.883.883 0 0 1-.108-.38c0-.252.092-.41.276-.47.215-.064.437-.1.661-.109l3.614-.114c.061-.505.12-.926.179-1.262.04-.266.108-.527.2-.78a.974.974 0 0 1 .25-.39.444.444 0 0 1 .286-.114c.387 0 .685.235.894.704.21.47.33 1.062.358 1.777l8.956-.249c.21-.01.373 0 .487.054.114.054.184.185.184.396-.005.2-.051.397-.135.58a1.948 1.948 0 0 1-.39.58 2.041 2.041 0 0 1-.612.433 1.82 1.82 0 0 1-.786.168h-.834l-1.891.01-2.498.022c-.91.01-1.795.016-2.654.016l-.385 2.856 1.24-.044 1.16-.043.883-.033.401-.01c.061 0 .098.034.108.102.242.022.412.112.51.271.099.158.162.336.184.52a7.32 7.32 0 0 1 2.02-1.68c.325-.18.666-.329 1.02-.443.279-.096.57-.15.866-.157.347 0 .63.182.85.547.221.365.333.807.337 1.327 0 .394-.029.787-.087 1.176-.056.465-.123.93-.2 1.392l.899-1.788c.227-.444.413-.789.558-1.035.144-.245.267-.408.368-.487a.564.564 0 0 1 .358-.125c.155.003.307.036.45.098.167.07.32.17.455.292.145.131.262.29.346.466.092.193.138.404.136.618 0 .191-.015.448-.044.77l-.108 1.061-.152 1.225c-.05.433-.104.85-.162 1.251.191-.296.41-.646.655-1.051.246-.405.488-.806.726-1.203.239-.4.456-.776.65-1.127.181-.325.322-.588.423-.79l.022-.136.27-1.831-1.316-.114c-.404-.029-.722-.06-.953-.092a4.343 4.343 0 0 1-.51-.087c-.113-.032-.184-.065-.216-.108a.276.276 0 0 1-.044-.163c0-.177.143-.38.428-.612.286-.231.746-.347 1.382-.347l1.474-.021.092-.515c.063-.36.155-.712.276-1.057.116-.342.25-.678.4-1.007.12-.269.275-.52.461-.748.163-.195.318-.292.466-.292.239 0 .383.1.434.303.053.194.066.397.038.596l-.293 2.698 2.059-.043c.162 0 .27.038.33.119.065.096.097.21.092.325a1.16 1.16 0 0 1-.108.504 1.66 1.66 0 0 1-.683.726.921.921 0 0 1-.433.108l-.64-.01a12.634 12.634 0 0 1-.774-.055l-.2 1.967c-.062.625-.112 1.19-.152 1.696-.047.505-.082.94-.103 1.305a15.05 15.05 0 0 0-.033.775c.18-.152.407-.403.678-.753.278-.347.58-.751.904-1.214.329-.462.669-.957 1.019-1.484.35-.528.68-1.039.991-1.533l.055-.082c.245-.77.556-1.356.931-1.76.401-.434.773-.65 1.116-.65.253 0 .443.068.57.205.124.136.189.314.189.537a.945.945 0 0 1-.044.276 2.398 2.398 0 0 1-.167.38 6.552 6.552 0 0 1-.347.573c-.148.22-.342.488-.58.802.253.849.475 1.683.666 2.503.19.78.288 1.58.293 2.384 0 .806-.182 1.466-.547 1.983-.365.517-.845.771-1.441.764a2.047 2.047 0 0 1-1.22-.39c-.36-.26-.541-.578-.541-.954a.764.764 0 0 1 .098-.379c.085-.141.19-.269.314-.38.14-.133.32-.285.536-.454l.791-.618a73.786 73.786 0 0 0-.244-1.273c-.084-.42-.188-.836-.314-1.246l-.016-.054c-.813 1.444-1.571 2.548-2.276 3.31-.704.77-1.31 1.152-1.82 1.149-.225 0-.447-.056-.645-.163a1.787 1.787 0 0 1-.536-.434 2.228 2.228 0 0 1-.358-.606 1.792 1.792 0 0 1-.135-.672l.01-.569.028-.488c-.163.34-.334.683-.515 1.03l-.525.964c-.163.3-.316.57-.46.807a6.17 6.17 0 0 1-.348.537c-.22.296-.393.514-.52.655a.617.617 0 0 1-.482.217 1.233 1.233 0 0 1-.471-.108 1.55 1.55 0 0 1-.445-.271 1.56 1.56 0 0 1-.336-.428 1.142 1.142 0 0 1-.135-.558c.01-.258.034-.514.07-.77.044-.364.096-.756.158-1.175.061-.42.113-.824.157-1.214.038-.307.06-.617.065-.926l-1.22 2.465a19.247 19.247 0 0 1-.747 1.409c-.195.321-.343.529-.444.623a.466.466 0 0 1-.314.146c-.253 0-.48-.12-.683-.358a1.3 1.3 0 0 1-.298-.867c0-.285.025-.711.076-1.278.05-.567.106-1.15.168-1.75.058-.603.117-1.169.179-1.696.061-.527.09-.912.086-1.154a3.63 3.63 0 0 0-.368.163l-.466.227a4.808 4.808 0 0 0-.434.26 3.152 3.152 0 0 0-.314.222v.011c.03.18.054.44.076.78s.033.629.033.867c.002.601-.061 1.2-.19 1.788a5.203 5.203 0 0 1-.569 1.5c-.231.41-.552.761-.937 1.03a2.248 2.248 0 0 1-1.295.38c-.61 0-1.102-.206-1.474-.618-.372-.412-.558-1.019-.558-1.82a6.44 6.44 0 0 1 .255-1.707c.152-.563.352-1.112.596-1.642l.049-.103h-.055l-1.023.05c-.358.014-.723.035-1.095.064l-.515 3.44a13.42 13.42 0 0 1-.368 1.82c-.14.485-.289.871-.444 1.16-.155.29-.323.495-.504.618a.997.997 0 0 1-.558.179c-.211 0-.352-.055-.433-.168zm6.507-5.261a3.953 3.953 0 0 0-.357 1.642c0 .296.036.53.108.704.081.168.19.255.341.255.18 0 .333-.161.455-.483.123-.321.186-.845.19-1.57 0-.387-.01-.77-.032-1.15-.022-.379-.033-.659-.033-.84-.21.434-.433.915-.672 1.442z" fill="#0AF"/></svg>
